X: 38994
T: Swallow's Tail, The
R: reel
M: 4/4
K: Adorian
gf|:eABA eABA|Bdef gdBA|G2BG dGBG|Bdef ggfg|
eABA eABA|Bdef gfgb|agec dBGB|A2A2 A3f:|
|:aaaa gbag|edef gdBA|G2BG dGBG|Bdef ggfg|
eaaa gbag|edef gfgb|agec dBGB|A2A2 A3f:|

